public/logos/4Y.svg

<?xml version="1.0" encoding="UTF-8"?>
<svg xmlns="http://www.w3.org/2000/svg" xmlns:xlink="http://www.w3.org/1999/xlink" width="176pt" height="46.3pt" viewBox="0 0 176 46.3" version="1.1">
<defs>
<clipPath id="clip1">
  <path d="M 70 0 L 118 0 L 118 46.300781 L 70 46.300781 Z M 70 0 "/>
</clipPath>
</defs>
<g id="surface1">
<g clip-path="url(#clip1)" clip-rule="nonzero">
<path style=" stroke:none;fill-rule:nonzero;fill:rgb(17.250061%,19.018555%,48.327637%);fill-opacity:1;" d="M 117.054688 23.148438 C 117.054688 35.933594 106.6875 46.300781 93.902344 46.300781 C 81.117188 46.300781 70.753906 35.933594 70.753906 23.148438 C 70.753906 10.363281 81.117188 0 93.902344 0 C 106.6875 0 117.054688 10.363281 117.054688 23.148438 "/>
</g>
<path style=" stroke:none;fill-rule:nonzero;fill:rgb(96.228027%,72.45636%,4.231262%);fill-opacity:1;" d="M 102.988281 11.414062 L 98.886719 22.578125 L 92.113281 22.578125 C 97.171875 9.890625 99.9375 9.410156 99.9375 9.410156 C 99.9375 9.410156 102.132812 9.410156 102.988281 9.410156 C 103.847656 9.410156 102.988281 11.414062 102.988281 11.414062 Z M 99.9375 8.433594 C 96.21875 8.433594 94.691406 12.65625 94.691406 12.65625 L 89.921875 22.578125 L 83.527344 22.578125 C 83.527344 22.578125 85.914062 17.042969 87.632812 12.464844 C 89.347656 7.886719 87.632812 8.457031 87.632812 8.457031 L 80.570312 8.457031 C 81.8125 8.457031 81.429688 10.367188 81.429688 10.367188 C 81.429688 10.367188 78.378906 19.621094 77.710938 21.527344 C 77.042969 23.4375 78.949219 24.582031 78.949219 24.582031 L 89.253906 24.390625 C 89.253906 24.390625 84.863281 32.878906 82.382812 36.695312 C 79.902344 40.511719 76.46875 40.703125 75.230469 40.703125 C 73.988281 40.703125 67.789062 40.894531 67.789062 33.929688 C 67.789062 26.964844 72.460938 25.535156 72.460938 25.535156 C 72.460938 25.535156 72.460938 25.535156 73.988281 24.867188 C 75.515625 24.199219 74.65625 23.53125 74.65625 23.53125 C 74.304688 23.53125 73.867188 23.53125 73.320312 23.53125 C 68.457031 23.53125 65.019531 29.828125 65.019531 34.027344 C 65.019531 38.222656 69.21875 43.566406 75.324219 43.566406 C 81.429688 43.566406 84.101562 38.03125 84.101562 38.03125 L 91.257812 24.390625 L 98.507812 24.292969 L 93.355469 37.9375 L 93.257812 42.613281 L 100.605469 42.613281 L 100.511719 41.085938 L 99.460938 41.085938 L 99.652344 37.269531 L 104.613281 24.101562 L 111.574219 24.101562 L 112.339844 22.578125 L 105.089844 22.578125 L 109.574219 9.125 C 109.574219 9.125 111.957031 9.03125 113.484375 9.03125 C 115.011719 9.03125 123.40625 11.605469 125.601562 11.605469 C 129.703125 11.605469 130.5625 8.433594 130.5625 8.433594 C 130.5625 8.433594 103.65625 8.433594 99.9375 8.433594 "/>
<path style=" stroke:none;fill-rule:nonzero;fill:rgb(96.228027%,72.45636%,4.231262%);fill-opacity:1;" d="M 112.941406 10.238281 C 112.941406 10.238281 122.546875 13.292969 123.945312 12.910156 C 121.878906 14.976562 118.730469 14.4375 117.015625 13.417969 C 115.296875 12.402344 112.941406 10.238281 112.941406 10.238281 "/>
<path style=" stroke:none;fill-rule:nonzero;fill:rgb(96.228027%,72.45636%,4.231262%);fill-opacity:1;" d="M 112.242188 11.636719 C 112.242188 11.636719 115.042969 14.371094 116.121094 14.691406 C 117.203125 15.007812 117.234375 15.675781 116.757812 16.152344 C 116.28125 16.632812 114.660156 17.617188 113.515625 15.453125 C 112.371094 13.292969 112.242188 11.636719 112.242188 11.636719 "/>
<path style=" stroke:none;fill-rule:nonzero;fill:rgb(96.228027%,72.45636%,4.231262%);fill-opacity:1;" d="M 110.273438 12.59375 C 110.273438 12.59375 112.941406 16.28125 112.941406 17.171875 C 112.941406 18.0625 110.589844 18.632812 110.273438 17.617188 C 109.953125 16.597656 110.273438 12.59375 110.273438 12.59375 "/>
<path style=" stroke:none;fill-rule:nonzero;fill:rgb(17.250061%,19.018555%,48.327637%);fill-opacity:1;" d="M 0.273438 9.21875 L 6.050781 9.21875 L 7.136719 14.894531 L 12.839844 9.21875 L 18.585938 9.21875 L 8.074219 19 L 5.210938 26.046875 L 0 26.046875 L 2.859375 19 L 0.273438 9.21875 "/>
<path style=" stroke:none;fill-rule:nonzero;fill:rgb(17.250061%,19.018555%,48.327637%);fill-opacity:1;" d="M 31.214844 9.21875 L 36.402344 9.21875 L 32.335938 19.246094 C 31.929688 20.238281 31.394531 21.175781 30.726562 22.0625 C 30.058594 22.945312 29.257812 23.71875 28.328125 24.378906 C 27.398438 25.039062 26.515625 25.503906 25.679688 25.773438 C 24.515625 26.148438 23.226562 26.335938 21.8125 26.335938 C 20.992188 26.335938 20.121094 26.277344 19.199219 26.164062 C 18.277344 26.046875 17.5625 25.820312 17.050781 25.480469 C 16.535156 25.140625 16.136719 24.65625 15.851562 24.027344 C 15.566406 23.402344 15.460938 22.753906 15.53125 22.089844 C 15.644531 21.019531 15.867188 20.070312 16.203125 19.246094 L 20.273438 9.21875 L 25.460938 9.21875 L 21.296875 19.484375 C 20.921875 20.402344 20.886719 21.117188 21.1875 21.632812 C 21.488281 22.152344 22.089844 22.410156 22.992188 22.410156 C 23.886719 22.410156 24.691406 22.15625 25.40625 21.644531 C 26.121094 21.136719 26.667969 20.414062 27.046875 19.484375 L 31.214844 9.21875 "/>
<path style=" stroke:none;fill-rule:nonzero;fill:rgb(17.250061%,19.018555%,48.327637%);fill-opacity:1;" d="M 38.664062 9.21875 L 54.472656 9.21875 L 52.785156 13.375 L 47.484375 13.375 L 42.339844 26.046875 L 37.140625 26.046875 L 42.28125 13.375 L 36.976562 13.375 L 38.664062 9.21875 "/>
<path style=" stroke:none;fill-rule:nonzero;fill:rgb(17.250061%,19.018555%,48.327637%);fill-opacity:1;" d="M 56.816406 9.21875 L 70.753906 9.21875 L 69.292969 12.808594 L 60.570312 12.808594 L 59.484375 15.484375 L 67.578125 15.484375 L 66.183594 18.917969 L 58.089844 18.917969 L 56.746094 22.234375 L 65.722656 22.234375 L 64.175781 26.046875 L 49.984375 26.046875 L 56.816406 9.21875 "/>
<path style=" stroke:none;fill-rule:nonzero;fill:rgb(17.250061%,19.018555%,48.327637%);fill-opacity:1;" d="M 133.671875 19.386719 L 133.988281 13.441406 L 129.300781 19.386719 Z M 133.4375 22.960938 L 126.453125 22.960938 L 124.328125 25.6875 L 118.046875 25.6875 L 132.519531 9.15625 L 139.230469 9.15625 L 139.722656 25.6875 L 133.28125 25.6875 L 133.4375 22.960938 "/>
<path style=" stroke:none;fill-rule:nonzero;fill:rgb(17.250061%,19.018555%,48.327637%);fill-opacity:1;" d="M 148.914062 9.15625 L 155.078125 9.15625 L 148.089844 25.6875 L 141.921875 25.6875 L 148.914062 9.15625 "/>
<path style=" stroke:none;fill-rule:nonzero;fill:rgb(17.250061%,19.018555%,48.327637%);fill-opacity:1;" d="M 162.921875 15.855469 L 165.519531 15.855469 C 165.796875 15.855469 166.371094 15.78125 167.242188 15.628906 C 167.679688 15.5625 168.085938 15.390625 168.460938 15.109375 C 168.835938 14.832031 169.101562 14.515625 169.253906 14.152344 C 169.476562 13.617188 169.449219 13.210938 169.160156 12.921875 C 168.875 12.636719 168.167969 12.496094 167.046875 12.496094 L 164.34375 12.496094 Z M 152.585938 25.6875 L 159.574219 9.15625 L 169.828125 9.15625 C 171.730469 9.15625 173.128906 9.292969 174.019531 9.5625 C 174.910156 9.835938 175.507812 10.335938 175.8125 11.070312 C 176.117188 11.800781 176.050781 12.695312 175.605469 13.746094 C 175.214844 14.664062 174.644531 15.457031 173.894531 16.121094 C 173.140625 16.785156 172.265625 17.324219 171.265625 17.738281 C 170.628906 18.003906 169.816406 18.21875 168.828125 18.394531 C 169.476562 18.597656 169.925781 18.800781 170.171875 19.003906 C 170.34375 19.136719 170.546875 19.425781 170.789062 19.871094 C 171.03125 20.316406 171.175781 20.65625 171.21875 20.898438 L 172.171875 25.6875 L 165.21875 25.6875 L 164.066406 20.636719 C 163.925781 19.984375 163.734375 19.558594 163.492188 19.363281 C 163.15625 19.105469 162.707031 18.980469 162.144531 18.980469 L 161.601562 18.980469 L 158.765625 25.6875 L 152.585938 25.6875 "/>
</g>
</svg>

<svg xmlns="http://www.w3.org/2000/svg" width="176pt" height="46.3pt" viewBox="0 0 176 46.3"><defs><clipPath id="a"><path d="M70 0h48v46.3H70Zm0 0"/></clipPath></defs><g clip-path="url(#a)"><path d="M117.055 23.148c0 12.786-10.368 23.153-23.153 23.153S70.754 35.934 70.754 23.148 81.117 0 93.902 0s23.153 10.363 23.153 23.148" style="stroke:none;fill-rule:nonzero;fill:#2c307b;fill-opacity:1"/></g><path d="m102.988 11.414-4.101 11.164h-6.774C97.172 9.891 99.938 9.41 99.938 9.41h3.05c.86 0 0 2.004 0 2.004m-3.05-2.98c-3.72 0-5.247 4.222-5.247 4.222l-4.77 9.922h-6.394s2.387-5.535 4.106-10.113c1.715-4.578 0-4.008 0-4.008H80.57c1.243 0 .86 1.91.86 1.91s-3.051 9.254-3.72 11.16c-.667 1.91 1.24 3.055 1.24 3.055l10.304-.191s-4.39 8.488-6.871 12.304c-2.48 3.817-5.914 4.008-7.153 4.008-1.242 0-7.44.192-7.44-6.773s4.67-8.395 4.67-8.395l1.528-.668c1.528-.668.668-1.336.668-1.336H73.32c-4.863 0-8.3 6.297-8.3 10.496 0 4.196 4.199 9.54 10.304 9.54s8.778-5.536 8.778-5.536l7.156-13.64 7.25-.098-5.153 13.645-.097 4.675h7.347l-.093-1.527H99.46l.191-3.816 4.961-13.168h6.961l.766-1.524h-7.25l4.484-13.453s2.383-.094 3.91-.094 9.922 2.574 12.118 2.574c4.101 0 4.96-3.171 4.96-3.171z" style="stroke:none;fill-rule:nonzero;fill:#f5b90b;fill-opacity:1"/><path d="M112.941 10.238s9.606 3.055 11.004 2.672c-2.066 2.067-5.215 1.527-6.93.508-1.718-1.016-4.074-3.18-4.074-3.18M112.242 11.637s2.801 2.734 3.88 3.054c1.081.317 1.112.985.636 1.461-.477.48-2.098 1.465-3.242-.699-1.145-2.16-1.274-3.816-1.274-3.816M110.273 12.594s2.668 3.687 2.668 4.578c0 .89-2.351 1.46-2.668.445-.32-1.02 0-5.023 0-5.023" style="stroke:none;fill-rule:nonzero;fill:#f5b90b;fill-opacity:1"/><path d="M.273 9.219h5.778l1.086 5.676 5.703-5.676h5.746L8.074 19l-2.863 7.047H0L2.86 19zM31.215 9.219h5.187l-4.066 10.027q-.608 1.487-1.61 2.817a10.9 10.9 0 0 1-2.398 2.316q-1.395.99-2.648 1.394-1.746.563-3.867.563-1.23-.001-2.614-.172-1.382-.175-2.148-.684-.773-.51-1.2-1.453a3.67 3.67 0 0 1-.32-1.937q.17-1.607.672-2.844l4.07-10.027h5.188l-4.164 10.265q-.561 1.376-.11 2.149.452.779 1.805.777 1.343 0 2.414-.765 1.073-.764 1.64-2.16zM38.664 9.219h15.809l-1.688 4.156h-5.3L42.34 26.047h-5.2l5.141-12.672h-5.304zM56.816 9.219h13.938l-1.461 3.59H60.57l-1.086 2.675h8.094l-1.394 3.434H58.09l-1.344 3.316h8.977l-1.547 3.813H49.984zM133.672 19.387l.316-5.946-4.687 5.946Zm-.234 3.574h-6.985l-2.125 2.727h-6.281L132.52 9.156h6.71l.493 16.532h-6.442zM148.914 9.156h6.164l-6.988 16.532h-6.168zM162.922 15.855h2.598q.415.001 1.722-.226a2.7 2.7 0 0 0 1.219-.52c.375-.277.64-.593.793-.957.223-.535.195-.941-.094-1.23-.285-.285-.992-.426-2.113-.426h-2.703Zm-10.336 9.833 6.988-16.532h10.254q2.853.001 4.192.406 1.335.409 1.792 1.508c.305.73.239 1.625-.207 2.676q-.585 1.378-1.71 2.375a9.4 9.4 0 0 1-2.63 1.617c-.636.266-1.449.48-2.437.657q.974.304 1.344.609.256.2.617.867.364.666.43 1.027l.953 4.79h-6.953l-1.153-5.051q-.21-.98-.574-1.274-.504-.385-1.347-.383h-.543l-2.836 6.708z" style="stroke:none;fill-rule:nonzero;fill:#2c307b;fill-opacity:1"/></svg>
